src/icons/survey.svg

<?xml version="1.0" encoding="UTF-8"?>
<svg width="512px" height="512px" viewBox="0 0 512 512" version="1.1" xmlns="http://www.w3.org/2000/svg" xmlns:xlink="http://www.w3.org/1999/xlink">
    <!-- Generator: Sketch 62 (91390) - https://sketch.com -->
    <title>survey</title>
    <desc>Created with Sketch.</desc>
    <g id="survey" stroke="none" stroke-width="1" fill="none" fill-rule="evenodd">
        <path d="M162.7,116.836111 L162.7,156.836111 L136,156.836111 L136,422.436111 L375,422.436111 L375,156.836111 L349.4,156.836111 L349.4,116.836111 L357.6,116.836111 C365.8,116.836111 375,116.836111 383.2,117.836111 C401.7,120.936111 415,137.336111 415,156.836111 L415,328.136111 C416,360.936111 416,392.736111 416,424.536111 C416,446.036111 398.6,463.536111 377,463.536111 L137,463.536111 C116.5,463.536111 101.1,451.236111 97,430.736111 C96.0909091,426.099747 96.0082645,421.380739 96.0007513,415.978034 L96,157.836111 C96,137.336111 110.4,119.936111 130.9,116.836111 C141.2,115.836111 151.4,116.836111 162.7,116.836111 Z M240.7,295.438889 L228.4,307.738889 C227.4,308.738889 225.3,308.738889 224.3,308.738889 L189.4,308.738889 L189.4,362.038889 L242.7,362.038889 C238.6,350.738889 248.8,346.638889 255,339.438889 L255,339.438889 L255,375.338889 L176,375.338889 L176,295.438889 L240.7,295.438889 Z M263.2,283.763889 C269.3,288.863889 273.4,293.963889 276.5,298.163889 L276.5,298.163889 L221.1,353.563889 L193.4,325.863889 L207.8,311.463889 C211.9,316.663889 217,320.763889 221.1,325.863889 L221.1,325.863889 Z M335,334.063889 L335,346.363889 L282.7,346.363889 L282.7,334.063889 L335,334.063889 Z M255,189.738889 L255,268.738889 L176,268.738889 L176,189.738889 L255,189.738889 Z M242.7,203.038889 L190.4,203.038889 L190.4,255.338889 L242.7,255.338889 L242.7,203.038889 Z M335,226.363889 L335,239.663889 L282.7,239.663889 L282.7,226.363889 L335,226.363889 Z M216,70.7388889 C235.5,41.0388889 276.5,41.0388889 295,70.7388889 C301.1,81.0388889 308.3,88.1388889 319.6,90.2388889 C323.7,91.2388889 328.8,93.3388889 332.9,94.3388889 C335,95.3388889 336,96.3388889 335,98.4388889 L335,98.4388889 L335,150.738889 C335,157.938889 330.9,162.038889 323.7,162.038889 L323.7,162.038889 L188.3,162.038889 C180.1,162.038889 176,157.938889 176,149.738889 L176,149.738889 L176,98.4388889 C176,96.4388889 177,95.3388889 179.1,94.3388889 C187.3,91.2388889 195.5,89.2388889 203.7,86.1388889 C205.7,85.1388889 207.8,84.1388889 208.8,82.0388889 C211.9,77.9388889 213.9,74.8388889 216,70.7388889 Z M256,72.7388889 C243.7,72.7388889 233.4,83.0388889 233.4,95.3388889 C233.4,108.738889 242.7,117.938889 256,117.938889 C268.3,117.938889 277.5,107.638889 277.5,95.3388889 C277.5,83.0388889 268.3,72.7388889 256,72.7388889 Z" id="Combined-Shape" fill="#000000" fill-rule="nonzero"></path>
    </g>
</svg>

<svg xmlns="http://www.w3.org/2000/svg" width="512" height="512" viewBox="0 0 512 512">
    <path d="M162.7 116.836v40H136v265.6h239v-265.6h-25.6v-40h8.2c8.2 0 17.4 0 25.6 1 18.5 3.1 31.8 19.5 31.8 39v171.3c1 32.8 1 64.6 1 96.4 0 21.5-17.4 39-39 39H137c-20.5 0-35.9-12.3-40-32.8-.91-4.636-.992-9.355-1-14.758V157.836c0-20.5 14.4-37.9 34.9-41 10.3-1 20.5 0 31.8 0zm78 178.603l-12.3 12.3c-1 1-3.1 1-4.1 1h-34.9v53.3h53.3c-4.1-11.3 6.1-15.4 12.3-22.6v35.9h-79v-79.9h64.7zm22.5-11.675c6.1 5.1 10.2 10.2 13.3 14.4l-55.4 55.4-27.7-27.7 14.4-14.4c4.1 5.2 9.2 9.3 13.3 14.4zm71.8 50.3v12.3h-52.3v-12.3H335zm-80-144.325v79h-79v-79h79zm-12.3 13.3h-52.3v52.3h52.3v-52.3zm92.3 23.325v13.3h-52.3v-13.3H335zM216 70.739c19.5-29.7 60.5-29.7 79 0 6.1 10.3 13.3 17.4 24.6 19.5 4.1 1 9.2 3.1 13.3 4.1 2.1 1 3.1 2 2.1 4.1v52.3c0 7.2-4.1 11.3-11.3 11.3H188.3c-8.2 0-12.3-4.1-12.3-12.3v-51.3c0-2 1-3.1 3.1-4.1 8.2-3.1 16.4-5.1 24.6-8.2 2-1 4.1-2 5.1-4.1 3.1-4.1 5.1-7.2 7.2-11.3zm40 2c-12.3 0-22.6 10.3-22.6 22.6 0 13.4 9.3 22.6 22.6 22.6 12.3 0 21.5-10.3 21.5-22.6s-9.2-22.6-21.5-22.6z"/>
</svg>
